!!!OTL: Als ich vor vielen Jahren (1-40), S. 104
!!!id: K1088
**kern
*clefG2
*k[f#c#]
*D:
{8a
8f#
=1
4.dd
8a
8g
8f#
=2
8e
8f#
4e}
=3
{8cc#
8dd
=4
4.ee
8dd
8cc#
8b
=5
8a
8dd
4a}
=6
{8b
8b
=7
4b
8dd
8b
8a
8dd
=8
4.a}
8r
=9
{8f#
8d
=10
4.a
8f#
8g
8a
=11
4f#}
4r
=12
{8b
8b
=13
4b
8dd
8b
8a
8dd
=14
4.a}
8r
=15
{8f#
8d
=16
4.a
8f#
8g
8a
=17
4f#}
4r
==
*-
!!!minrhy: 8
!!!meters: 3/4 ]  ZZ[6
!!!cut: Als ich vor vielen Jahren (1-40), S. 104
!!!reg: Luxemburg
!!!trd: KINTZELE, Guillaume: An der Ucht, Bd. 1, Luxemburg 1926
!!!rhy1: XX  X_.XXX  XXX_
!!!rhy2: XX  X_.XXX  XXX_
!!!key: K1088  08  D 3/4 ]  ZZ[6
!!!mod: HEPTATONIK IONISCH]  AMBITUS[9
!!!kad: 255353
!!!akz: +12_+25_65_53_65_53_
!!!fot: 'a__b__c__bs"c__bs"
!!!for: 'a__a__b__aw_b__aw_
!!!fok: '^d_^d_^d_^__^d_^__
!! PHRAS[AUFTAKTIG]
!!!fkt: Verf&uuml;hrung, Beischlaf?
!!!bem: in der Quelle mit einer 2. Stimme versehen
!! KINTZELE
!! PR[13] 2K[9] 2G[26] 3K[0] 3G[0] 4A[9] 4Ü[0] 5A[0] 6K[2] 6G[0]
!! 7K[0] 7G[0] 8A[0] MEHR[0] SI[45] ABS[47] SR[34] SP[11]
!! ST[12] 2k[4] 2g[21] 3k[11] 3g[0] 4d[6] 4ü[0] 5d[0] 6k[0] 6g[0]
!! 7k[0] 7g[0] 8d[0] mehr[0] si[43] dm[+2] sr[26] sp[17]
!! 1F[67] 2F[21] 3F[4] 4F[0] LF[0] 2P[8] 3P[0] 4P[0] TRI[0] DF[4] AB[48]
!! TF[0] U3K[0] U3[0] U4[0] U4Ü[0] U5[0] U6K[0] U6[0] U7K[0] U7[0]
!! N1[2] N2K[0] N2[15] N3K[0] N3[23] N4[13] N4Ü[0] N5[27] N6K[0] N6[15]
!!!n7k: 0] N7[4] O1[2] O2K[0] O2[0] O3K[0] O3[0] HÖ[0
!!!RNB: symbol: &uuml;  = u umlaut (UTF-8: Ã¼)
